X:1
T:Der Tod Abels
T:Morgengesang
T:Johann Heinrich Rolle
T:Johann Samuel Patzke
T:Morgengesang
T:Eingangschor aus dem musikalischen Drama "Der Tod Abels"
T:CPDL - Creative Commons Attribution Non Commercial 3.0
C:Johann Heinrich Rolle
Z:Johann Samuel Patzke
Z:CPDL - Creative Commons Attribution Non Commercial 3.0
%%score [ ( 1 2 ) ( 3 4 ) ]
L:1/8
Q:1/4=100
M:4/4
K:Eb
V:1 treble nm="Sopran\nAlt"
V:2 treble 
V:3 bass nm="Tenor\nBass"
V:4 bass 
V:1
"^Mit Einfachheit und Würde"!f!"^poco" E4 G4 | B6 z2 |!f! (B2 e4) fd | e4 z2!mf! B2 | %4
w: Tutti:~1.~~Lobt den|Herrn,|lobt * den *|Herrn! Die|
w: Solo:~2.~~~~~" "|"|" * " *|" In|
w: Tutti:~3.~~~~~" "|"|" * " *|" Aus|
 (c3 d e2) dc | c2 B2!<(! g4-!<)! |!>(! g2 fe!>)! dc BA | (G3 c B2) =A2 | B6 z2 || %9
w: Mor- * * gen- *|son- ne weckt|_ die _ Flur _ aus _|ih- * * rer|Ruh,|
w: frü- * * hen *|Düf- ten lo-|* bet _ ihn _ der _|Blu- * * men|Flor;|
w: sei- * * ner *|Höh- le brüllt|_ das _ Wild _ ihm _|sei- * * nen|Dank.|
"^poco"!f! B4 (d7/2 e/) | f2 c>=B c2 d2 | e2 B2!<(! e4-!<)! |!f! e2 d2 a2 g2 | (c3 f e2) d2 | %14
w: und der _|gan- zen * Schöp- fung|Won- ne strömt|_ ver- jüngt uns|wie- * * der|
w: auf den _|Wip- feln, * in den|Lüf- ten sin-|* get ihn der|Vö- * * gel|
w: O vor _|al- len, * mei- ne|See- le, tön'|_ ihm früh dein|Lob- * * ge-|
 e6 z2 |] %15
w: zu.|
w: Chor.|
w: sang!|
V:2
 E4 E4 | G6 x2 | (E2 G4) AF | G4 x2 G2 | (A3 B c2) BA | A2 G2 B4- | B2 B2 BA GF | (E2 G2 F2) F2 | %8
 F6 x2 || F4 F4 | F2 F2 F2 F2 | E2 E2 G4- | G2 F2 F2 E2 | (E2 A2 G2) F2 | G6 x2 |] %15
V:3
!f!"^poco" E4 E4 | E6 z2 |!f! B,6 B,2 | B,4 z2!mf! E2 | E6 E2 | E2 E2 E4- | E2 DC B,2 B,2 | %7
 (B,2 E2 D2) C2 | D6 z2 ||"^poco"!f! D4 B,4 | C2 C2 C2 B,2 | B,2 B,2!<(! B,4-!<)! | %12
!f! B,2 B,2 D2 B,2 | (C4 B,2) B,2 | B,6 z2 |] %15
V:4
 E,4 E,4 | E,6 x2 | (G,2 E,2 B,2) B,,2 | E,4 x2 E,2 | A,6 A,2 | E,2 E,2 E,>F, G,>A, | B,6 B,,2 | %7
w: |||||* * 1.~weckt * die _|Flur aus|
w: |||||* * 2.~lo- * bet _|ihn der|
w: |||||* * 3.~brüllt * das _|Wild ihm|
 (E,2 C,2 F,2) [F,,F,]2 | B,,6 x2 || B,4 B,4 | =A,2 A,2 _A,2 A,2 | G,2 G,2 E,>F, G,>A, | B,6 E,2 | %13
w: ||||* * strömt * ver- *|jüngt uns|
w: ||||* * sin- * get *|ihn der|
w: ||||* * tön' * ihm *|früh dein|
 (A,2 F,2 B,2) B,,2 | E,6 x2 |] %15
w: ||
w: ||
w: ||

